X:97
T:Banshee
M:C|
L:1/8
S:G
R:Reel
K:G
D | "G"G3D "Em"ED BA | "Am"GFGB "D"d2Bd | "C"eged "G"BAGA | "Em"BAGE "D"
EDDE |
"G"G3D "Em"ED BA | "Am"GFGB "D"d2Bd | "C"eged "G"BAGA | "Em"BAGE "D"EDD2
:|
|:"Am"eaag "C"efge | "Em"dBBA B3d | "Em"eBB2 "G"gB"D"fB | "Em"eBBA B3d |
"Am"eaag "C"efge | "Em"dBBA B3d | "C"(3efg ed "G"BAGA | "Em"BAGE "D"EDD2
:|
